assets/img/braze_icons/edit-01.svg

<svg fill="none" height="24" viewBox="0 0 24 24" width="24" xmlns="http://www.w3.org/2000/svg"><path clip-rule="evenodd" d="m16.2929 2.29289c1.4951-1.495094 3.9191-1.495092 5.4142 0 1.4951 1.4951 1.4951 3.91912 0 5.41422l-13.20629 13.20629c-.01676.0167-.03336.0334-.04984.0499-.2449.2453-.46092.4616-.7176.6309-.22566.1488-.47039.2664-.72756.3497-.29249.0947-.59639.1282-.9409.1662-.02319.0025-.04657.0051-.07013.0077l-3.38437.3761c-.30193.0335-.60273-.072-.81754-.2868s-.32032-.5156-.28678-.8175l.37604-3.3844c.00262-.0236.0052-.0469.00776-.0701.038-.3445.07152-.6484.16621-.9409.08325-.2572.20088-.5019.34969-.7276.16925-.2567.38562-.4727.63091-.7176.0165-.0165.03314-.0331.0499-.0498z" fill="#801ed7" fill-rule="evenodd"/></svg>

<svg width="24" height="24" viewBox="0 0 24 24" fill="none" xmlns="http://www.w3.org/2000/svg">
<path fill-rule="evenodd" clip-rule="evenodd" d="M16.2929 2.29289C17.788 0.797796 20.212 0.797798 21.7071 2.29289C23.2022 3.78799 23.2022 6.21201 21.7071 7.70711L8.50081 20.9134C8.48405 20.9301 8.46745 20.9468 8.45097 20.9633C8.20607 21.2086 7.99005 21.4249 7.73337 21.5942C7.50771 21.743 7.26298 21.8606 7.00581 21.9439C6.71332 22.0386 6.40942 22.0721 6.06491 22.1101C6.04172 22.1126 6.01834 22.1152 5.99478 22.1178L2.61041 22.4939C2.30848 22.5274 2.00768 22.4219 1.79287 22.2071C1.57806 21.9923 1.47255 21.6915 1.50609 21.3896L1.88213 18.0052C1.88475 17.9816 1.88733 17.9583 1.88989 17.9351C1.92789 17.5906 1.96141 17.2867 2.0561 16.9942C2.13935 16.737 2.25698 16.4923 2.40579 16.2666C2.57504 16.0099 2.79141 15.7939 3.0367 15.549C3.0532 15.5325 3.06984 15.5159 3.0866 15.4992L16.2929 2.29289Z" fill="#801ED7"/>
</svg>
